build/images/content/marketing/img_5.svg

<svg width="120" height="120" viewBox="0 0 120 120" fill="none" xmlns="http://www.w3.org/2000/svg">
<path d="M27.4429 73.9958L24.9462 72.1137L22.4494 73.9958L21.5769 73.5787C20.6151 73.1201 19.7585 72.4736 19.0324 71.6552L18.4337 70.9816L19.3906 67.9276L16.8955 66.0487L16.9958 65.1475C17.1184 64.0408 17.5117 62.767 18.026 61.8243L18.4798 60.99L21.5275 61.0027L22.4654 58.1605L23.3666 57.9742C24.4239 57.756 25.4684 57.756 26.5257 57.9742L27.4222 58.1589L28.3792 61.0059L31.2453 60.9852L31.7007 61.8227C32.3933 63.0934 32.7962 64.2112 32.8997 65.1459L33 66.0471L30.5049 67.926L31.4618 70.98L30.8631 71.6536C30.137 72.4704 29.2804 73.1169 28.3186 73.5771L27.4429 73.9958Z" fill="#00BBD3"/>
<path d="M45.6889 73.806L43.2506 71.968L40.8124 73.806L39.9603 73.3986C39.0211 72.9507 38.1845 72.3194 37.4755 71.5202L36.8908 70.8624L37.8253 67.88L35.3887 66.0451L35.4866 65.165C35.6064 64.0842 35.9904 62.8403 36.4927 61.9197L36.9359 61.1049L39.9121 61.1173L40.828 58.3417L41.7081 58.1598C42.7406 57.9467 43.7607 57.9467 44.7932 58.1598L45.6686 58.3402L46.6032 61.1205L49.4021 61.1002L49.8469 61.9182C50.5233 63.159 50.9167 64.2506 51.0178 65.1634L51.1157 66.0435L48.6791 67.8784L49.6136 70.8608L49.0289 71.5186C48.3199 72.3163 47.4833 72.9476 46.5441 73.397L45.6889 73.806Z" fill="#00BBD3"/>
<path d="M63.3002 73.806L60.862 71.968L58.4238 73.806L57.5716 73.3986C56.6324 72.9507 55.7959 72.3194 55.0868 71.5202L54.5021 70.8624L55.4367 67.88L53 66.0451L53.098 65.165C53.2177 64.0842 53.6018 62.8403 54.104 61.9197L54.5472 61.1049L57.5234 61.1173L58.4393 58.3417L59.3194 58.1598C60.3519 57.9467 61.372 57.9467 62.4045 58.1598L63.28 58.3402L64.2145 61.1205L67.0135 61.1002L67.4582 61.9182C68.1346 63.159 68.528 64.2506 68.6291 65.1634L68.7271 66.0435L66.2904 67.8784L67.2249 70.8608L66.6403 71.5186C65.9312 72.3163 65.0946 72.9476 64.1554 73.397L63.3002 73.806Z" fill="#00BBD3"/>
<path d="M116.788 56.375C117.688 55.3775 118.25 54.0706 118.25 52.625C118.25 49.5238 115.726 47 112.625 47H103.25C102.215 47 101.375 46.1581 101.375 45.125V32C101.375 27.8637 98.0113 24.5 93.875 24.5C91.8069 24.5 90.125 26.1819 90.125 28.25V38.3656C90.125 43.1431 87.7513 47.5794 83.7744 50.2306C81.6406 51.6537 79.1825 52.4319 76.6362 52.5687C75.845 50.42 73.7956 48.875 71.375 48.875H68.9825C62.7481 37.2875 50.8512 30.125 37.625 30.125C17.9806 30.125 2 46.1056 2 65.75C2 76.7337 7.0025 86.5662 14.8419 93.1062L8.51188 113.681L22.1187 109.145L31.1 118.126L35.5925 101.272C36.2694 101.311 36.9388 101.375 37.625 101.375C38.3094 101.375 38.9881 101.341 39.6669 101.304L44.1519 118.124L53.1331 109.143L66.74 113.679L60.4269 93.1625C63.8675 90.2919 66.7756 86.7313 68.9844 82.625H71.375C73.8163 82.625 75.8788 81.0519 76.655 78.875H78.5713L82.175 80.0769C83.5175 80.5231 84.9144 80.75 86.3262 80.75H112.625C115.726 80.75 118.25 78.2262 118.25 75.125C118.25 73.6794 117.686 72.3725 116.788 71.375C117.688 70.3775 118.25 69.0706 118.25 67.625C118.25 66.1794 117.686 64.8725 116.788 63.875C117.688 62.8775 118.25 61.5706 118.25 60.125C118.25 58.6794 117.686 57.3725 116.788 56.375ZM29.15 110.874L23.1313 104.855L14.2381 107.819L18.0369 95.4744C22.1225 98.1763 26.7988 100.031 31.8219 100.859L29.15 110.874ZM61.0119 107.819L52.1187 104.855L46.1 110.874L43.4356 100.888C48.4231 100.076 53.1031 98.2325 57.2262 95.5156L61.0119 107.819ZM37.625 97.625C20.0487 97.625 5.75 83.3262 5.75 65.75C5.75 48.1737 20.0487 33.875 37.625 33.875C48.7681 33.875 58.8556 39.5581 64.6569 48.875H60.0744C54.7681 41.8306 46.4712 37.625 37.6269 37.625C22.1187 37.625 9.50187 50.2419 9.50187 65.75C9.50187 81.2581 22.1187 93.875 37.6269 93.875C46.4731 93.875 54.77 89.6694 60.0744 82.625H64.6569C58.8556 91.9419 48.7681 97.625 37.625 97.625ZM55.1619 48.875H20.0769C24.515 44.2625 30.7344 41.375 37.625 41.375C44.2944 41.375 50.6 44.1425 55.1619 48.875ZM20.0769 82.625H55.1619C50.6 87.3575 44.2944 90.125 37.625 90.125C30.7344 90.125 24.515 87.2375 20.0769 82.625ZM73.25 77C73.25 78.0331 72.41 78.875 71.375 78.875H17.1181C14.6825 75.0819 13.25 70.5838 13.25 65.75C13.25 60.9162 14.6825 56.4181 17.1181 52.625H71.375C72.41 52.625 73.25 53.4669 73.25 54.5V77ZM112.625 77H86.3262C85.3175 77 84.32 76.8387 83.3619 76.5181L79.1787 75.125H77V56.2925C80.1594 56.0937 83.2025 55.1187 85.8556 53.3506C90.8769 50.0019 93.875 44.3994 93.875 38.3656V28.25C95.9431 28.25 97.625 29.9319 97.625 32V45.125C97.625 48.2262 100.149 50.75 103.25 50.75H112.625C113.66 50.75 114.5 51.5919 114.5 52.625C114.5 53.6581 113.66 54.5 112.625 54.5H107V58.25H112.625C113.66 58.25 114.5 59.0919 114.5 60.125C114.5 61.1581 113.66 62 112.625 62H107V65.75H112.625C113.66 65.75 114.5 66.5919 114.5 67.625C114.5 68.6581 113.66 69.5 112.625 69.5H107V73.25H112.625C113.66 73.25 114.5 74.0919 114.5 75.125C114.5 76.1581 113.66 77 112.625 77Z" fill="#043A52"/>
<path d="M108.588 20.75L111.331 4.3025L102.215 8.86062L100.143 4.715C99.3033 3.04062 97.6214 2 95.7502 2C93.8789 2 92.1971 3.04062 91.3589 4.71312L89.2871 8.85875L80.1689 4.3025L82.9121 20.75H108.588ZM90.9633 13.8912L94.7133 6.39125C95.1089 5.59812 96.3914 5.6 96.7852 6.39125L100.535 13.8912L106.419 10.9494L105.412 17H86.0883L85.0815 10.9475L90.9633 13.8912Z" fill="#043A52"/>
</svg>

<svg width="120" height="120" fill="none" xmlns="http://www.w3.org/2000/svg"><path d="M27.443 73.996l-2.497-1.882-2.497 1.882-.872-.417a7.983 7.983 0 01-2.545-1.924l-.598-.673.957-3.054-2.495-1.88.1-.9c.122-1.107.516-2.381 1.03-3.324l.454-.834 3.047.013.938-2.843.902-.186a7.705 7.705 0 013.159 0l.896.185.957 2.847 2.866-.02.456.837c.692 1.27 1.095 2.388 1.199 3.323l.1.901-2.495 1.879.957 3.054-.599.674a8.03 8.03 0 01-2.544 1.923l-.876.419zm18.246-.19l-2.438-1.838-2.439 1.838-.852-.407a7.796 7.796 0 01-2.485-1.879l-.584-.658.934-2.982-2.436-1.835.098-.88c.12-1.08.503-2.325 1.006-3.245l.443-.815 2.976.012.916-2.775.88-.182a7.524 7.524 0 013.085 0l.876.18.934 2.78 2.8-.02.444.818c.676 1.241 1.07 2.333 1.17 3.245l.099.88-2.437 1.835.935 2.983-.585.658a7.84 7.84 0 01-2.485 1.878l-.855.409zm17.611 0l-2.438-1.838-2.438 1.838-.852-.407a7.797 7.797 0 01-2.485-1.879l-.585-.658.935-2.982L53 66.045l.098-.88c.12-1.08.504-2.325 1.006-3.245l.443-.815 2.976.012.916-2.775.88-.182a7.524 7.524 0 013.085 0l.876.18.934 2.78 2.8-.02.444.818c.677 1.241 1.07 2.333 1.171 3.245l.098.88-2.437 1.835.935 2.983-.585.658a7.841 7.841 0 01-2.485 1.878l-.855.409z" fill="#00BBD3"/><path d="M116.788 56.375a5.58 5.58 0 001.462-3.75A5.632 5.632 0 00112.625 47h-9.375a1.877 1.877 0 01-1.875-1.875V32c0-4.136-3.364-7.5-7.5-7.5a3.754 3.754 0 00-3.75 3.75v10.116c0 4.777-2.374 9.213-6.35 11.865-2.134 1.423-4.593 2.2-7.139 2.338-.791-2.149-2.84-3.694-5.261-3.694h-2.392c-6.235-11.587-18.132-18.75-31.358-18.75C17.981 30.125 2 46.105 2 65.75c0 10.984 5.003 20.816 12.842 27.356l-6.33 20.575 13.607-4.536 8.981 8.981 4.492-16.854c.677.039 1.347.103 2.033.103.684 0 1.363-.034 2.042-.071l4.485 16.82 8.981-8.981 13.607 4.536-6.313-20.517c3.44-2.87 6.349-6.43 8.557-10.537h2.391c2.441 0 4.504-1.573 5.28-3.75h1.916l3.604 1.202a13.14 13.14 0 004.151.673h26.299a5.632 5.632 0 005.625-5.625c0-1.446-.564-2.752-1.462-3.75a5.58 5.58 0 001.462-3.75c0-1.446-.564-2.752-1.462-3.75a5.58 5.58 0 001.462-3.75c0-1.446-.564-2.752-1.462-3.75zM29.15 110.874l-6.019-6.019-8.893 2.964 3.799-12.345a35.377 35.377 0 0013.785 5.385l-2.672 10.015zm31.862-3.055l-8.893-2.964-6.019 6.019-2.664-9.986a35.347 35.347 0 0013.79-5.372l3.786 12.303zM37.625 97.625C20.049 97.625 5.75 83.326 5.75 65.75s14.299-31.875 31.875-31.875c11.143 0 21.23 5.683 27.032 15h-4.583c-5.306-7.044-13.603-11.25-22.447-11.25-15.508 0-28.125 12.617-28.125 28.125s12.617 28.125 28.125 28.125c8.846 0 17.143-4.206 22.447-11.25h4.583c-5.801 9.317-15.889 15-27.032 15zm17.537-48.75H20.077c4.438-4.612 10.657-7.5 17.548-7.5 6.67 0 12.975 2.767 17.537 7.5zm-35.085 33.75h35.085c-4.562 4.733-10.868 7.5-17.537 7.5-6.89 0-13.11-2.888-17.548-7.5zM73.25 77c0 1.033-.84 1.875-1.875 1.875H17.118c-2.435-3.793-3.868-8.291-3.868-13.125s1.432-9.332 3.868-13.125h54.257c1.035 0 1.875.842 1.875 1.875V77zm39.375 0H86.326a9.324 9.324 0 01-2.964-.482l-4.183-1.393H77V56.292c3.16-.198 6.203-1.173 8.856-2.941a17.977 17.977 0 008.019-14.985V28.25a3.754 3.754 0 013.75 3.75v13.125a5.632 5.632 0 005.625 5.625h9.375c1.035 0 1.875.842 1.875 1.875s-.84 1.875-1.875 1.875H107v3.75h5.625c1.035 0 1.875.842 1.875 1.875S113.66 62 112.625 62H107v3.75h5.625c1.035 0 1.875.842 1.875 1.875s-.84 1.875-1.875 1.875H107v3.75h5.625c1.035 0 1.875.842 1.875 1.875S113.66 77 112.625 77zm-4.037-56.25l2.743-16.447-9.116 4.558-2.072-4.146A4.889 4.889 0 0095.75 2a4.887 4.887 0 00-4.391 2.713L89.287 8.86 80.17 4.303l2.743 16.447h25.676zm-17.625-6.859l3.75-7.5c.396-.793 1.678-.791 2.072 0l3.75 7.5 5.884-2.942L105.412 17H86.088l-1.006-6.053 5.881 2.944z" fill="#043A52"/></svg>
